projects/helm/horizontal/white/helm-horizontal-white.svg

<svg height="351" viewBox="0 0 304 351" width="304" xmlns="http://www.w3.org/2000/svg" xmlns:xlink="http://www.w3.org/1999/xlink"><mask id="a" fill="#fff"><path d="m0 0h313.303155v159.864865h-313.303155z" fill="#fff" fill-rule="evenodd"/></mask><mask id="b" fill="#fff"><path d="m0 0h313.303155v159.864865h-313.303155z" fill="#fff" fill-rule="evenodd"/></mask><g fill="none" fill-rule="evenodd" transform="translate(-11 -51)"><path d="m11.6785714 189h19.7858357v26.789h23.9037v-26.789h19.7858358v75.25h-19.7858358v-28.695333h-23.9037v28.695333h-19.7858357zm86.1738429 75.25v-75.25h46.8030427v16.354333h-27.017207v12.240667h23.9037v16.655333h-23.9037v13.846h27.017207v16.153667zm68.4971567 0v-75.25h19.785836v55.384h27.117643v19.866zm77.536372-75.25 30.733328 27.892667 30.632893-27.892667h8.938779v75.25h-19.886272v-38.628333l-19.6854 17.959666-19.785835-17.859333v38.528h-19.886272v-75.25z" fill="#fff"/><g transform="matrix(1 0 0 -1 11.958136 455)"><g fill="#fff" mask="url(#a)"><path d="m203.460676 95.6875425c6.93631 0 12.559301-14.8092194 12.559301-33.0773172s-5.622991-33.0773172-12.559301-33.0773172c-6.936311 0-12.559301 14.8092194-12.559301 33.0773172s5.62299 33.0773172 12.559301 33.0773172z" transform="matrix(.81915204 .57357644 -.57357644 .81915204 111.870091 -51.706556)"/><path d="m30.1423223 95.6875425c6.9363104 0 12.559301-14.8092194 12.559301-33.0773172s-5.6229906-33.0773172-12.559301-33.0773172-12.5593009 14.8092194-12.5593009 33.0773172 5.6229905 33.0773172 12.5593009 33.0773172z" transform="matrix(-.81915204 .57357644 .57357644 .81915204 58.084611 47.704768)"/><path d="m116.732815 66.2752676c6.936311 0 12.559301-14.8092193 12.559301-33.0773172 0-18.2680978-5.62299-33.07731713-12.559301-33.07731713-6.93631 0-12.559301 14.80921933-12.559301 33.07731713 0 18.2680979 5.622991 33.0773172 12.559301 33.0773172z" transform="matrix(-1 0 0 1 272.628524 53.670762)"/></g><path d="m251.467006 173.099849c-20.230076-33.609969-56.889565-56.067908-98.755776-56.067908-40.720798 0-76.5158766 21.245901-97.0586959 53.334588m2.1981107 129.169534c20.8403036 30.232701 55.5559042 50.026591 94.8605852 50.026591 39.376099 0 74.146424-19.865887 94.974049-50.191495" mask="url(#a)" stroke="#fff" stroke-width="20"/></g><g transform="translate(11.958136)"><g fill="#fff" mask="url(#b)"><path d="m203.460676 95.6875425c6.93631 0 12.559301-14.8092194 12.559301-33.0773172s-5.622991-33.0773172-12.559301-33.0773172c-6.936311 0-12.559301 14.8092194-12.559301 33.0773172s5.62299 33.0773172 12.559301 33.0773172z" transform="matrix(.81915204 .57357644 -.57357644 .81915204 111.870091 -54.166016)"/><path d="m30.1423223 95.6875425c6.9363104 0 12.559301-14.8092194 12.559301-33.0773172s-5.6229906-33.0773172-12.559301-33.0773172-12.5593009 14.8092194-12.5593009 33.0773172 5.6229905 33.0773172 12.5593009 33.0773172z" transform="matrix(-.81915204 .57357644 .57357644 .81915204 58.084611 45.245308)"/><path d="m116.732815 66.2752676c6.936311 0 12.559301-14.8092193 12.559301-33.0773172 0-18.2680978-5.62299-33.07731713-12.559301-33.07731713-6.93631 0-12.559301 14.80921933-12.559301 33.07731713 0 18.2680979 5.622991 33.0773172 12.559301 33.0773172z" transform="matrix(-1 0 0 1 272.628524 51.211302)"/></g><path d="m251.467006 170.64039c-20.230076-33.609969-56.889565-56.067908-98.755776-56.067908-40.720798 0-76.5158766 21.2459-97.0586959 53.334587m2.1981107 129.169534c20.8403036 30.232702 55.5559042 50.026591 94.8605852 50.026591 39.376099 0 74.146424-19.865886 94.974049-50.191494" mask="url(#b)" stroke="#fff" stroke-width="20"/></g></g></svg>

<?xml version="1.0" encoding="UTF-8"?>
<svg width="304px" height="351px" viewBox="0 0 304 351" version="1.1" xmlns="http://www.w3.org/2000/svg" xmlns:xlink="http://www.w3.org/1999/xlink">
    <!-- Generator: Sketch 51.3 (57544) - http://www.bohemiancoding.com/sketch -->
    <title>Artboard</title>
    <desc>Created with Sketch.</desc>
    <defs>
        <rect id="path-1" x="0" y="0" width="313.303155" height="159.864865"></rect>
        <rect id="path-3" x="0" y="0" width="313.303155" height="159.864865"></rect>
    </defs>
    <g id="Artboard" stroke="none" stroke-width="1" fill="none" fill-rule="evenodd">
        <g id="Logo" transform="translate(-11.000000, -51.000000)">
            <g id="Betchna-Helm">
                <path d="M11.6785714,189 L31.4644071,189 L31.4644071,215.789 L55.3681071,215.789 L55.3681071,189 L75.1539429,189 L75.1539429,264.25 L55.3681071,264.25 L55.3681071,235.554667 L31.4644071,235.554667 L31.4644071,264.25 L11.6785714,264.25 L11.6785714,189 Z M97.8524143,264.25 L97.8524143,189 L144.655457,189 L144.655457,205.354333 L117.63825,205.354333 L117.63825,217.595 L141.54195,217.595 L141.54195,234.250333 L117.63825,234.250333 L117.63825,248.096333 L144.655457,248.096333 L144.655457,264.25 L97.8524143,264.25 Z M166.349571,264.25 L166.349571,189 L186.135407,189 L186.135407,244.384 L213.25305,244.384 L213.25305,264.25 L166.349571,264.25 Z M243.885943,189 L274.619271,216.892667 L305.252164,189 L314.190943,189 L314.190943,264.25 L294.304671,264.25 L294.304671,225.621667 L274.619271,243.581333 L254.833436,225.722 L254.833436,264.25 L234.947164,264.25 L234.947164,189 L243.885943,189 Z" id="HELM" fill="#FFFFFF"></path>
                <g id="top-arc" transform="translate(168.958136, 375.000000) scale(1, -1) translate(-168.958136, -375.000000) translate(11.958136, 295.000000)">
                    <mask id="mask-2" fill="white">
                        <use xlink:href="#path-1"></use>
                    </mask>
                    <g id="Rectangle-5" fill-rule="nonzero"></g>
                    <g id="rungs-top" mask="url(#mask-2)" fill="#FFFFFF">
                        <g transform="translate(39.162894, 53.670762)">
                            <path d="M203.460676,95.6875425 C210.396986,95.6875425 216.019977,80.8783231 216.019977,62.6102253 C216.019977,44.3421275 210.396986,29.5329081 203.460676,29.5329081 C196.524365,29.5329081 190.901375,44.3421275 190.901375,62.6102253 C190.901375,80.8783231 196.524365,95.6875425 203.460676,95.6875425 Z" id="Oval-1" transform="translate(203.460676, 62.610225) rotate(35.000000) translate(-203.460676, -62.610225) "></path>
                            <path d="M30.1423223,95.6875425 C37.0786327,95.6875425 42.7016233,80.8783231 42.7016233,62.6102253 C42.7016233,44.3421275 37.0786327,29.5329081 30.1423223,29.5329081 C23.2060119,29.5329081 17.5830214,44.3421275 17.5830214,62.6102253 C17.5830214,80.8783231 23.2060119,95.6875425 30.1423223,95.6875425 Z" id="Oval-1-Copy" transform="translate(30.142322, 62.610225) scale(-1, 1) rotate(35.000000) translate(-30.142322, -62.610225) "></path>
                            <path d="M116.732815,66.2752676 C123.669126,66.2752676 129.292116,51.4660483 129.292116,33.1979504 C129.292116,14.9298526 123.669126,0.120633266 116.732815,0.120633266 C109.796505,0.120633266 104.173514,14.9298526 104.173514,33.1979504 C104.173514,51.4660483 109.796505,66.2752676 116.732815,66.2752676 Z" id="Oval-1-Copy-4" transform="translate(116.732815, 33.197950) scale(-1, 1) translate(-116.732815, -33.197950) "></path>
                        </g>
                    </g>
                    <path d="M251.467006,173.099849 C231.23693,139.48988 194.577441,117.031941 152.71123,117.031941 C111.990432,117.031941 76.1953534,138.277842 55.6525341,170.366529 M57.8506448,299.536063 C78.6909484,329.768764 113.406549,349.562654 152.71123,349.562654 C192.087329,349.562654 226.857654,329.696767 247.685279,299.371159" id="Oval-1" stroke="#FFFFFF" stroke-width="20" mask="url(#mask-2)"></path>
                </g>
                <g id="top-arc" transform="translate(11.958136, 0.000000)">
                    <mask id="mask-4" fill="white">
                        <use xlink:href="#path-3"></use>
                    </mask>
                    <g id="Rectangle-5" fill-rule="nonzero"></g>
                    <g id="rungs-top" mask="url(#mask-4)" fill="#FFFFFF">
                        <g transform="translate(39.162894, 51.211302)">
                            <path d="M203.460676,95.6875425 C210.396986,95.6875425 216.019977,80.8783231 216.019977,62.6102253 C216.019977,44.3421275 210.396986,29.5329081 203.460676,29.5329081 C196.524365,29.5329081 190.901375,44.3421275 190.901375,62.6102253 C190.901375,80.8783231 196.524365,95.6875425 203.460676,95.6875425 Z" id="Oval-1" transform="translate(203.460676, 62.610225) rotate(35.000000) translate(-203.460676, -62.610225) "></path>
                            <path d="M30.1423223,95.6875425 C37.0786327,95.6875425 42.7016233,80.8783231 42.7016233,62.6102253 C42.7016233,44.3421275 37.0786327,29.5329081 30.1423223,29.5329081 C23.2060119,29.5329081 17.5830214,44.3421275 17.5830214,62.6102253 C17.5830214,80.8783231 23.2060119,95.6875425 30.1423223,95.6875425 Z" id="Oval-1-Copy" transform="translate(30.142322, 62.610225) scale(-1, 1) rotate(35.000000) translate(-30.142322, -62.610225) "></path>
                            <path d="M116.732815,66.2752676 C123.669126,66.2752676 129.292116,51.4660483 129.292116,33.1979504 C129.292116,14.9298526 123.669126,0.120633266 116.732815,0.120633266 C109.796505,0.120633266 104.173514,14.9298526 104.173514,33.1979504 C104.173514,51.4660483 109.796505,66.2752676 116.732815,66.2752676 Z" id="Oval-1-Copy-4" transform="translate(116.732815, 33.197950) scale(-1, 1) translate(-116.732815, -33.197950) "></path>
                        </g>
                    </g>
                    <path d="M251.467006,170.64039 C231.23693,137.030421 194.577441,114.572482 152.71123,114.572482 C111.990432,114.572482 76.1953534,135.818382 55.6525341,167.907069 M57.8506448,297.076603 C78.6909484,327.309305 113.406549,347.103194 152.71123,347.103194 C192.087329,347.103194 226.857654,327.237308 247.685279,296.9117" id="Oval-1" stroke="#FFFFFF" stroke-width="20" mask="url(#mask-4)"></path>
                </g>
            </g>
        </g>
    </g>
</svg>
